X: 7873
T:Stapleton's March
R:March
O:England
M:C
A:Westmorland
N:P25(2nd), 2/2
K:D
d2dd d2A2|d2fe d4|f2ff f2d2|abag f3g|\
abag fgaf|gagf efge|fgfe dbag|e3d d4:|
|:a2aa a2a2|b2a2a4|f2ff f2d2| edcB A2g2|\
abag fgaf|gagf efge| fgfe dbag| e3d d4:|
